X:1
T:Title
%%score { ( 1 3 ) | ( 2 4 ) }
L:1/8
M:6/4
K:G
V:1 treble nm="Grand Piano"
V:3 treble 
V:2 bass 
V:4 bass 
V:1
 z6 z4 [B,D]2 | [DB]2 [^C_B]2 [D=B]2 [Ec]4 [DG]2 | [^CB]6 [CA]4 [CE]2 | G2 F2 E2 D4 c2 | %4
[M:5/4] B2- B2- B6 |[M:1/4] [B,D]2 |[M:6/4] [DB]2 [^C_B]2 [D=B]2 [Ec]4 [=Fd]2 | [=Fd]6 [Ec]4 E2 | %8
 D2 B2 c2 B4 A2 |[M:5/4] [B,DG]2- [B,DG]2- [B,DG]6 |[M:1/4] [B,DG]2 |[M:6/4] A2 A2 A2 F4 D2 | B12 | %13
 [^DB]2 [DA]2 [DF]2 [DB]2 [DA]2 [DF]2 |[M:5/4] G2- G2- G6 |[M:1/4] [=FG]2 | %16
[M:6/4] [EG]2 [^DF]2 [EG]2 [EA]2 [EG]2 [CE]2 |[M:7/4] [B,D]6 [=Fd]6 [Ec]2 | %18
[M:6/4] B2 c2 B2 [G,^CE]4 [=CDF]2 |[M:5/4] G2- G2- G6 |] %20
V:2
 z6 z4 [G,,G,]2 | [G,,G,]2 [G,,G,]2 [G,,G,]2 [G,,G,]4 [B,,G,]2 | [A,,G,]6 [A,,G,]4 [A,,A,]2 | %3
 [D,A,C]2 [D,A,C]2 [D,G,C]2 [D,F,C]4 [D,A,D]2 |[M:5/4] [G,D]2- [G,D]2- [G,D]6 |[M:1/4] [G,,G,]2 | %6
[M:6/4] [G,,G,]2 [G,,G,]2 [G,,G,]2 [G,,G,]4 [B,,G,]2 | [C,G,]6 [C,G,]4 [C,G,C]2 | %8
 [D,G,B,]2 [D,G,D]2 [D,A,D]2 [D,G,D]4 [D,CD]2 |[M:5/4] G,,2- G,,2- G,,6 |[M:1/4] G,,2 | %11
[M:6/4] [D,CD]2 [D,CD]2 [D,CD]2 [D,A,C]4 [F,A,]2 | [G,D]4 G,2 G,4 [G,,G,]2 | %13
 [B,,F,]2 [B,,B,]2 [B,,B,]2 [B,,B,]2 [B,,B,]2 [B,,B,]2 |[M:5/4] [E,B,E]4 [E,B,]2 [E,B,]4 | %15
[M:1/4] [D,B,]2 |[M:6/4] [C,C]2 [C,C]2 [C,C]2 [C,C]2 [C,C]2 [C,G,]2 | %17
[M:7/4] [G,,G,]6 [B,,G,]6 [C,G,]2 |[M:6/4] [D,G,D]2 [D,A,D]2 [D,G,D]2 A,,4 D,2 | %19
[M:5/4] z4 C2 B,4 |] %20
V:3
 x12 | x12 | x12 | x12 |[M:5/4] x10 |[M:1/4] x2 |[M:6/4] x12 | x12 | x12 |[M:5/4] x10 |[M:1/4] x2 | %11
[M:6/4] x12 | z4 D2 D4 [DB]2 | x12 |[M:5/4] z4 E2 E4 |[M:1/4] x2 |[M:6/4] x12 |[M:7/4] x14 | %18
[M:6/4] x12 |[M:5/4] [B,D]4 E2 D4 |] %20
V:4
 x12 | x12 | x12 | x12 |[M:5/4] x10 |[M:1/4] x2 |[M:6/4] x12 | x12 | x12 |[M:5/4] x10 |[M:1/4] x2 | %11
[M:6/4] x12 | x12 | x12 |[M:5/4] x10 |[M:1/4] x2 |[M:6/4] x12 |[M:7/4] x14 |[M:6/4] x12 | %19
[M:5/4] G,,2- G,,2- G,,6 |] %20

